copytrade/img/icons/present.svg

<svg width="32" height="32" viewBox="0 0 32 32" fill="none" xmlns="http://www.w3.org/2000/svg">
<path d="M23.1111 12.4445H8.88889C8.39797 12.4445 8 12.8424 8 13.3333V15.1111C8 15.602 8.39797 16 8.88889 16H23.1111C23.602 16 24 15.602 24 15.1111V13.3333C24 12.8424 23.602 12.4445 23.1111 12.4445Z" stroke="#D9467B" stroke-width="1.75" stroke-linecap="round" stroke-linejoin="round"/>
<path d="M16 12.4445V24" stroke="#D9467B" stroke-width="1.75" stroke-linecap="round" stroke-linejoin="round"/>
<path d="M22.2223 16.0001V22.2223C22.2223 22.6938 22.035 23.146 21.7016 23.4794C21.3682 23.8128 20.916 24.0001 20.4445 24.0001H11.5556C11.0841 24.0001 10.6319 23.8128 10.2985 23.4794C9.96513 23.146 9.77783 22.6938 9.77783 22.2223V16.0001" stroke="#D9467B" stroke-width="1.75" stroke-linecap="round" stroke-linejoin="round"/>
<path d="M12.0001 12.4445C11.4107 12.4445 10.8455 12.2103 10.4287 11.7936C10.012 11.3768 9.77783 10.8116 9.77783 10.2222C9.77783 9.63287 10.012 9.06764 10.4287 8.6509C10.8455 8.23415 11.4107 8.00002 12.0001 8.00002C12.8576 7.98508 13.6979 8.40114 14.4114 9.19394C15.1249 9.98674 15.6785 11.1195 16.0001 12.4445C16.3216 11.1195 16.8752 9.98674 17.5887 9.19394C18.3023 8.40114 19.1426 7.98508 20.0001 8.00002C20.5894 8.00002 21.1547 8.23415 21.5714 8.6509C21.9882 9.06764 22.2223 9.63287 22.2223 10.2222C22.2223 10.8116 21.9882 11.3768 21.5714 11.7936C21.1547 12.2103 20.5894 12.4445 20.0001 12.4445" stroke="#D9467B" stroke-width="1.75" stroke-linecap="round" stroke-linejoin="round"/>
</svg>

<svg width="32" height="32" fill="none" xmlns="http://www.w3.org/2000/svg"><path d="M23.111 12.444H8.89a.889.889 0 00-.889.89v1.777c0 .491.398.889.889.889h14.22a.889.889 0 00.889-.889v-1.778a.889.889 0 00-.889-.889zm-7.111 0V24" stroke="#D9467B" stroke-width="1.75" stroke-linecap="round" stroke-linejoin="round"/><path d="M22.222 16v6.222A1.778 1.778 0 0120.445 24h-8.89a1.778 1.778 0 01-1.777-1.778V16M12 12.444A2.223 2.223 0 0112 8c.858-.015 1.698.401 2.411 1.194.714.793 1.268 1.925 1.59 3.25.32-1.325.874-2.457 1.588-3.25C18.302 8.4 19.143 7.985 20 8a2.222 2.222 0 010 4.444" stroke="#D9467B" stroke-width="1.75" stroke-linecap="round" stroke-linejoin="round"/></svg>
